X: 2528
T: Ballyferriter, The
R: jig
M: 6/8
K: Dmajor
A2F ABc|dAF EDB,|A,B,D EFG|ABd c2B|
A2F ABc|dAF EDB,|A,DA, B,DG|1 FDC D2B:|2 FDC D2A||
F2A dBA|B3 AFD|A,CE G3|A,CE GAG|
F2D EFG|AGE EDB,|A,DA, B,DG|1 FDC D2A:|2 FDC D2B||

